X:1
T:Title
%%score { ( 1 4 ) | ( 2 3 ) }
L:1/8
M:3/4
K:Eb
V:1 treble nm="Grand Piano"
V:4 treble 
V:2 bass 
V:3 bass 
V:1
 z2 z2[Q:1/4=94] G>G | G3 E AG | G2 E2 GB | A3 c cA | A2 G2 [B,GB]>[B,GB] | [Ge]3 [Ge] [Bd][Ac] | %6
 [GB]2 [EG]2 [GB][GB] | cc B2 FA |[M:2/4] [B,EG]4 |[M:1/4] [B,EG][B,FA] | %10
[M:3/4] [EGB][EGB] .[EGB]2 [Bd][Ac] | [GB]2 [EG]2 [GB][Gc] | [Ad][Ad] [Ad]2 [FA][Ac] | %13
 [Ac]2 B2 G[FA] | [GB][GB] .[GB]2 de |[M:7/8] f2 c3 dc |[M:3/4] Be [Ad]2 cd |[M:2/4] [Ge]4 |] %18
V:2
 z2 z2 [E,B,E]>[E,B,E] | [E,B,E]3 [E,G,B,] [E,CE][E,B,E] | [E,B,E]2 [E,G,B,]2 [E,B,E][E,_DE] | %3
 [A,CE]3 [A,E] [A,E][A,CE] | [E,E]4 z2 | [E,B,]3 [E,B,] [E,E][E,E] | [E,E]2 [E,B,]2 [E,B,][E,E] | %7
 [A,EA][A,EA] [B,DF]2 DF |[M:2/4][K:bass] E,4 |[M:1/4] E,E, | %10
[M:3/4] E,E, z[K:treble] e[K:bass] [E,E]2 | [E,E]2 [E,B,]2 [E,B,][E,B,] | %12
 [B,,B,][B,,B,] [B,,B,]2 [B,D]2 | z2 G2 [E,E][E,E] | [E,E][E,E] z[K:treble] e G,2 | %15
[M:7/8] [A,CA]2 [A,EA]3 [A,EA][A,E] |[M:3/4] [B,EG][B,G][K:bass] [B,,B,]2 [B,,B,]2 | %17
[M:2/4] [E,B,]4 |] %18
V:3
 x6 | x6 | x6 | x6 | C2 B,2 E,>E, | x6 | x6 | z2 z2 B,2 |[M:2/4][K:bass] x4 |[M:1/4] x2 | %10
[M:3/4] z2 E,2[K:treble][K:bass] z2 | x6 | x6 | [E,E]4 z2 | z2 [E,E]2[K:treble] z2 |[M:7/8] x7 | %16
[M:3/4] x2[K:bass] x4 |[M:2/4] x4 |] %18
V:4
 x6 | x6 | x6 | x6 | x6 | x6 | x6 | x6 |[M:2/4] x4 |[M:1/4] x2 |[M:3/4] x6 | x6 | x6 | x6 | %14
 z2 z2 [EB]2 |[M:7/8] x7 |[M:3/4] z2 z2 A2 |[M:2/4] x4 |] %18

